public/assets/img/notify.svg

<svg width="24" height="24" viewBox="0 0 24 24" fill="none" xmlns="http://www.w3.org/2000/svg">
<path fill-rule="evenodd" clip-rule="evenodd" d="M12.0039 20.5625C13.8945 20.5625 15.1523 19.1641 15.2148 17.6641H18.3633C19.2305 17.6641 19.7773 17.1719 19.7773 16.4219C19.7773 15.5469 19.0508 14.8281 18.3164 14.1562C17.7235 13.6179 17.6058 12.5654 17.4654 11.3098L17.4648 11.3047C17.3086 8.46875 16.3945 6.50781 14.3945 5.78906C14.0664 4.72656 13.1758 3.96094 12.0039 3.96094C10.8242 3.96094 9.93359 4.72656 9.61328 5.78906C7.60547 6.50781 6.69141 8.46875 6.53516 11.3047C6.40234 12.5625 6.27734 13.6172 5.68359 14.1562C4.95703 14.8281 4.22266 15.5469 4.22266 16.4219C4.22266 17.1719 4.76953 17.6641 5.64453 17.6641H8.79297C8.83203 19.1328 10.0977 20.5625 12.0039 20.5625ZM17.5508 16H6.41797V15.9141C6.67578 15.6953 7.11328 15.3125 7.48047 14.8828C7.99609 14.2734 8.23047 13.0234 8.32422 11.5781C8.44141 8.65625 9.37109 7.625 10.5586 7.30469C10.7461 7.25781 10.8555 7.17188 10.8789 6.94531C10.9258 6.17188 11.3477 5.67188 12.0039 5.67188C12.6523 5.67188 13.0742 6.17188 13.1211 6.94531C13.1445 7.17188 13.2539 7.25781 13.4414 7.30469C14.6289 7.625 15.5586 8.65625 15.6758 11.5781C15.7695 13.0234 16.0117 14.2734 16.5195 14.8828C16.8867 15.3125 17.293 15.6953 17.5508 15.9141V16ZM10.5039 17.6641C10.5586 18.5703 11.168 19.1719 12.0039 19.1719C12.8477 19.1719 13.457 18.5625 13.4961 17.6641H10.5039Z" fill="white"/>
</svg>

<svg width="24" height="24" fill="none" xmlns="http://www.w3.org/2000/svg"><path fill-rule="evenodd" clip-rule="evenodd" d="M12.004 20.563c1.89 0 3.148-1.399 3.21-2.899h3.15c.866 0 1.413-.492 1.413-1.242 0-.875-.726-1.594-1.46-2.266-.593-.538-.711-1.59-.852-2.846v-.005c-.156-2.836-1.07-4.797-3.07-5.516-.329-1.062-1.22-1.828-2.391-1.828-1.18 0-2.07.766-2.39 1.828-2.009.719-2.923 2.68-3.079 5.516-.133 1.258-.258 2.312-.851 2.851-.727.672-1.461 1.39-1.461 2.266 0 .75.547 1.242 1.422 1.242h3.148c.039 1.469 1.305 2.898 3.21 2.898ZM17.55 16H6.418v-.086a9.612 9.612 0 0 0 1.062-1.031c.516-.61.75-1.86.844-3.305.117-2.922 1.047-3.953 2.235-4.273.187-.047.296-.133.32-.36.047-.773.469-1.273 1.125-1.273.648 0 1.07.5 1.117 1.273.024.227.133.313.32.36 1.188.32 2.118 1.351 2.235 4.273.094 1.445.336 2.695.844 3.305.367.43.773.812 1.03 1.031V16Zm-7.047 1.664c.055.906.664 1.508 1.5 1.508.844 0 1.453-.61 1.492-1.508h-2.992Z" fill="#000" fill-opacity=".4"/></svg>
